X: 18
T: Toss The Feathers
Z: bravesentry
S: https://thesession.org/tunes/113#setting49872
R: reel
M: 4/4
L: 1/8
K: Edor
EBB2 dBB2|EBBA FDFA|BE E2 B3d|egfe dBAF|
EBB2 dBB2|EBBA FDFA|BE E2 B3d|egfe dBAd||
Beed e2 de|fede fe e2|febe febe|fede fe e2|
Beed e2 de|fede fa a2|b3f a3f|egfe dBAF||

